src/images/dark_btn.svg

<svg width="60" height="24" viewBox="0 0 60 24" fill="none" xmlns="http://www.w3.org/2000/svg">
<rect width="60" height="24" rx="12" fill="url(#paint0_linear_403_4)"/>
<path d="M4.02604 11.7744C4.26766 15.1211 7.20061 17.8439 10.7108 17.9933C13.1873 18.0973 15.4021 16.9796 16.731 15.2185C17.2814 14.4972 16.9861 14.0163 16.0666 14.1788C15.6169 14.2568 15.1538 14.2893 14.6706 14.2698C11.3886 14.1398 8.704 11.482 8.69058 8.34329C8.68386 7.49851 8.86508 6.69921 9.19394 5.9714C9.55637 5.16561 9.12012 4.7822 8.28117 5.12662C5.62339 6.21184 3.80456 8.80467 4.02604 11.7744Z" stroke="white" stroke-linecap="round" stroke-linejoin="round"/>
<path d="M41.6482 5.64817C45.1696 2.12677 50.8681 2.11591 54.3761 5.62393C57.8841 9.13195 57.8732 14.8304 54.3518 18.3518C50.8304 21.8732 45.1319 21.8841 41.6239 18.3761C38.1159 14.8681 38.1268 9.16958 41.6482 5.64817Z" fill="white"/>
<path d="M53.1765 6.57422C56.0554 9.65093 56.0446 14.6508 53.1523 17.7418" stroke="url(#paint1_linear_403_4)" stroke-width="1.2" stroke-linecap="round"/>
<defs>
<linearGradient id="paint0_linear_403_4" x1="7.32865" y1="1.71488" x2="17.73" y2="34.0815" gradientUnits="userSpaceOnUse">
<stop stop-color="#FFC226"/>
<stop offset="1" stop-color="#F84119"/>
</linearGradient>
<linearGradient id="paint1_linear_403_4" x1="53.4182" y1="7.37218" x2="57.2247" y2="8.2955" gradientUnits="userSpaceOnUse">
<stop stop-color="#FFC226"/>
<stop offset="1" stop-color="#F84119"/>
</linearGradient>
</defs>
</svg>

<svg xmlns="http://www.w3.org/2000/svg" width="60" height="24" fill="none">
  <rect width="60" height="24" fill="url(#a)" rx="12"/>
  <path stroke="#fff" stroke-linecap="round" stroke-linejoin="round" d="M4.026 11.774c.242 3.347 3.175 6.07 6.685 6.22 2.476.103 4.691-1.014 6.02-2.775.55-.722.255-1.203-.664-1.04-.45.078-.913.11-1.396.09-3.282-.13-5.967-2.787-5.98-5.926a5.624 5.624 0 0 1 .503-2.372c.362-.805-.074-1.189-.913-.844-2.658 1.085-4.476 3.678-4.255 6.647Z"/>
  <path fill="#fff" d="M41.648 5.648c3.522-3.521 9.22-3.532 12.728-.024 3.508 3.508 3.497 9.206-.024 12.728-3.522 3.521-9.22 3.532-12.728.024-3.508-3.508-3.497-9.206.024-12.728Z"/>
  <path stroke="url(#b)" stroke-linecap="round" stroke-width="1.2" d="M53.176 6.574c2.88 3.077 2.869 8.077-.024 11.168"/>
  <defs>
    <linearGradient id="a" x1="7.329" x2="17.73" y1="1.715" y2="34.081" gradientUnits="userSpaceOnUse">
      <stop stop-color="#FFC226"/>
      <stop offset="1" stop-color="#F84119"/>
    </linearGradient>
    <linearGradient id="b" x1="53.418" x2="57.225" y1="7.372" y2="8.296" gradientUnits="userSpaceOnUse">
      <stop stop-color="#FFC226"/>
      <stop offset="1" stop-color="#F84119"/>
    </linearGradient>
  </defs>
</svg>
